resources/hamburger_menu.svg

<svg width="24" height="24" viewBox="0 0 24 24" fill="none"
     xmlns="http://www.w3.org/2000/svg">
  <path
    d="M20 12C20 11.4477 19.5523 11 19 11H5C4.44772 11 4 11.4477 4 12C4 12.5523 4.44772 13 5 13H19C19.5523 13 20 12.5523 20 12ZM20 6C20 5.44772 19.5523 5 19 5H5C4.44772 5 4 5.44772 4 6C4 6.55228 4.44772 7 5 7H19C19.5523 7 20 6.55228 20 6ZM4 18C4 18.5523 4.44772 19 5 19H19C19.5523 19 20 18.5523 20 18C20 17.4477 19.5523 17 19 17H5C4.44772 17 4 17.4477 4 18Z"
    fill="#283038"/>
</svg>

<svg width="24" height="24" fill="none" xmlns="http://www.w3.org/2000/svg"><path d="M20 12a1 1 0 0 0-1-1H5a1 1 0 1 0 0 2h14a1 1 0 0 0 1-1zm0-6a1 1 0 0 0-1-1H5a1 1 0 0 0 0 2h14a1 1 0 0 0 1-1zM4 18a1 1 0 0 0 1 1h14a1 1 0 1 0 0-2H5a1 1 0 0 0-1 1z" fill="#283038"/></svg>
